resources/haticons/SVG/10k.svg

<!-- Generated by IcoMoon.io -->
<svg version="1.1" xmlns="http://www.w3.org/2000/svg" width="24" height="24" viewBox="0 0 24 24">
<title>10k</title>
<path d="M19.5 15l-2.25-3 2.25-3h-1.734l-1.781 2.25v-2.25h-1.5v6h1.5v-2.25l1.781 2.25h1.734zM12.984 14.016v-4.031q0-0.422-0.281-0.703t-0.703-0.281h-2.484q-0.422 0-0.727 0.281t-0.305 0.703v4.031q0 0.422 0.305 0.703t0.727 0.281h2.484q0.422 0 0.703-0.281t0.281-0.703zM7.5 15v-6h-3v1.5h1.5v4.5h1.5zM18.984 3q0.797 0 1.406 0.609t0.609 1.406v13.969q0 0.797-0.609 1.406t-1.406 0.609h-13.969q-0.797 0-1.406-0.609t-0.609-1.406v-13.969q0-0.797 0.609-1.406t1.406-0.609h13.969zM9.984 10.5h1.5v3h-1.5v-3z"></path>
</svg>

<svg xmlns="http://www.w3.org/2000/svg" width="24" height="24"><path d="M19.5 15l-2.25-3 2.25-3h-1.734l-1.781 2.25V9h-1.5v6h1.5v-2.25L17.766 15H19.5zm-6.516-.984V9.985q0-.422-.281-.703T12 9.001H9.516q-.422 0-.727.281t-.305.703v4.031q0 .422.305.703t.727.281H12q.422 0 .703-.281t.281-.703zM7.5 15V9h-3v1.5H6V15h1.5zM18.984 3q.797 0 1.406.609t.609 1.406v13.969q0 .797-.609 1.406t-1.406.609H5.015q-.797 0-1.406-.609T3 18.984V5.015q0-.797.609-1.406T5.015 3h13.969zm-9 7.5h1.5v3h-1.5v-3z"/></svg>
